book-open-variant.svg

<svg fill="currentColor" viewBox="0 0 24 24"><path d="M12 21.5c-1.35-.85-3.8-1.5-5.5-1.5-1.65 0-3.35.3-4.75 1.05-.1.05-.15.05-.25.05-.25 0-.5-.25-.5-.5V6c.6-.45 1.25-.75 2-1 1.11-.35 2.33-.5 3.5-.5 1.95 0 4.05.4 5.5 1.5 1.45-1.1 3.55-1.5 5.5-1.5 1.17 0 2.39.15 3.5.5.75.25 1.4.55 2 1v14.6c0 .25-.25.5-.5.5-.1 0-.15 0-.25-.05-1.4-.75-3.1-1.05-4.75-1.05-1.7 0-4.15.65-5.5 1.5M12 8v11.5c1.35-.85 3.8-1.5 5.5-1.5 1.2 0 2.4.15 3.5.5V7c-1.1-.35-2.3-.5-3.5-.5-1.7 0-4.15.65-5.5 1.5m1 3.5c1.11-.68 2.6-1 4.5-1 .91 0 1.76.09 2.5.28V9.23c-.87-.15-1.71-.23-2.5-.23q-2.655 0-4.5.84zm4.5.17c-1.71 0-3.21.26-4.5.79v1.69c1.11-.65 2.6-.99 4.5-.99 1.04 0 1.88.08 2.5.24v-1.5c-.87-.16-1.71-.23-2.5-.23m2.5 2.9c-.87-.16-1.71-.24-2.5-.24-1.83 0-3.33.27-4.5.8v1.69c1.11-.66 2.6-.99 4.5-.99 1.04 0 1.88.08 2.5.24z"/></svg>

<svg  viewBox="0 0 24 24" fill="currentColor"><path  d="M12 21.5C10.65 20.65 8.2 20 6.5 20C4.85 20 3.15 20.3 1.75 21.05C1.65 21.1 1.6 21.1 1.5 21.1C1.25 21.1 1 20.85 1 20.6V6C1.6 5.55 2.25 5.25 3 5C4.11 4.65 5.33 4.5 6.5 4.5C8.45 4.5 10.55 4.9 12 6C13.45 4.9 15.55 4.5 17.5 4.5C18.67 4.5 19.89 4.65 21 5C21.75 5.25 22.4 5.55 23 6V20.6C23 20.85 22.75 21.1 22.5 21.1C22.4 21.1 22.35 21.1 22.25 21.05C20.85 20.3 19.15 20 17.5 20C15.8 20 13.35 20.65 12 21.5M12 8V19.5C13.35 18.65 15.8 18 17.5 18C18.7 18 19.9 18.15 21 18.5V7C19.9 6.65 18.7 6.5 17.5 6.5C15.8 6.5 13.35 7.15 12 8M13 11.5C14.11 10.82 15.6 10.5 17.5 10.5C18.41 10.5 19.26 10.59 20 10.78V9.23C19.13 9.08 18.29 9 17.5 9C15.73 9 14.23 9.28 13 9.84V11.5M17.5 11.67C15.79 11.67 14.29 11.93 13 12.46V14.15C14.11 13.5 15.6 13.16 17.5 13.16C18.54 13.16 19.38 13.24 20 13.4V11.9C19.13 11.74 18.29 11.67 17.5 11.67M20 14.57C19.13 14.41 18.29 14.33 17.5 14.33C15.67 14.33 14.17 14.6 13 15.13V16.82C14.11 16.16 15.6 15.83 17.5 15.83C18.54 15.83 19.38 15.91 20 16.07V14.57Z"/></svg>
